X: 3102
T: Beara Boys, The
R: reel
M: 4/4
K: Dmajor
"D"dcAG "D"FD"A"EC|"D"A,DDE FG A2|"D"dcde "A"dcAB|"A"c2 "D" d2 "A"efge|
"D"dcAG "D"FD"A"EC|"D"A,DDE FGAB|"A"c2 de dcAg|"D"fg"A"ec "D"d4:|
"D"d2 ad "D"fg"Em"ed|"A"cAGe dc a2|"D"d2 fe deAB|"C"=cdef "A"gea2|
"D"d2 ad "D"fg"Em"ed|"A"cAGe dc a2|"Em"efed "A"ceag|"D"fg"A"ec "D"d4:|

